X: 623
T: Gonggunr kuqi
%%abc-version 2.0
%%abcx-abcm2ps-target-version 5.9.1 (29 Sep 2008)
%%abc-creator hum2abc beta
%%abcx-conversion-date 2013/10/02 07:52:30
%%abc-edited-by Helmut Schaffrath
%%humdrum-veritas 147235959
%%humdrum-veritas-data 367342063
%%continueall 1
%%barnumbers 0
L: 1/8
M: 2/4
K: A
B B B B [I:setbarnb 1]| 
d> G A F | 
A4 | 
B B/ A/ F f/ A/ | 
B A/ F< E D/ | 
E4 | 
E> F E E/ F/ | 
A A B F | 
C C E C | 
B,> CB,2 | 
A A/ A/ A c | 
B3c | 
A> F E F | 
E4 |]  



